circle-edit-outline.svg

<svg fill="currentColor" viewBox="0 0 24 24"><path d="M12 2A10 10 0 0 0 2 12a10 10 0 0 0 10 10 10 10 0 0 0 10-10h-2a8 8 0 0 1-8 8 8 8 0 0 1-8-8 8 8 0 0 1 8-8zm6.78 1a.7.7 0 0 0-.48.2l-1.22 1.21 2.5 2.5L20.8 5.7c.26-.26.26-.7 0-.95L19.25 3.2c-.13-.13-.3-.2-.47-.2m-2.41 2.12L9 12.5V15h2.5l7.37-7.38z"/></svg>

<svg  viewBox="0 0 24 24" fill="currentColor"><path  d="M12,2A10,10 0 0,0 2,12A10,10 0 0,0 12,22A10,10 0 0,0 22,12H20A8,8 0 0,1 12,20A8,8 0 0,1 4,12A8,8 0 0,1 12,4V2M18.78,3C18.61,3 18.43,3.07 18.3,3.2L17.08,4.41L19.58,6.91L20.8,5.7C21.06,5.44 21.06,5 20.8,4.75L19.25,3.2C19.12,3.07 18.95,3 18.78,3M16.37,5.12L9,12.5V15H11.5L18.87,7.62L16.37,5.12Z"/></svg>
